X: 20
T: Don Side
M: 4/4
L: 1/8
C: Trad.
S: Barra MacNeils
R: Strathspey
K: G
E|:D<gb>G A>GE<a|d<gb>G A>GB<d|c>AB<g a>GE<e|d<g b<a b<g g2:||!
f|:g<dg>B A>GE<f|g<d g<d g<d ga|b/2a/2g/2f/2 ge|d<g b>A B<g g2:||
